X: 37
T: Invite our sweetheart
N: Derived from ojibwa37.krn
C: Chippewa Songs ~ 1910
O: Red Wing, Minnesota, U.S.A
N: Chippewa Music by Frances Densmore, 1910
Z: transcribed to **kern format by Paul von Hippel and Daniel T. Shanahan
L: 1/8
M: 2/4
Q: 1/4=108
K: Bb clef=bass
%%linebreak <none>
D D [I:setbarnb 1]| 
D B,B,2 | 
B,2B, B, | 
B, G,G,2 | 
[M:3/4]G,2G,2G, G, | 
[M:2/4]G,2G,3/ B,/ | 
B,2C C | 
B,4 | 
G,2D,2 | 
D,2-D,3/ G,/ | 
G,3G, | 
G,2D,2 | 
G,3G, | 
G,2-G,3/ B,/ | 
B,2C C | 
B,4 | 
G,2D,2 | 
D,2-D,3/ G,/ | 
G,3G, | 
G,2D,2 | 
G,3G, | 
G,4 |]  



